X: 7597
T: Coen's Memories
R: reel
M: 4/4
K: Gdorian
|:GFDC DFGA|dg (3ggg fdcA|~F3A G2FD|CFAF GFDC|
DGGF G2Ac|d2gd fdcA|FGAc d2cA|FGAF G3A:|
|:dg (3ggg agfd|g2ag fdcA|~c3d ~f3a|gfga f2dc|
dgg2 agfd|g2ag fdcA|FGAc dAcA|FGAF G3A:|

